X: 81
T: Christi mater ave
C: Gaspar van Weerbeke
%%abc-version 2.0
%%abcx-abcm2ps-target-version 5.9.1 (29 Sep 2008)
%%abc-creator hum2abc beta
%%abcx-conversion-date 2022/03/06 13:05:58
%%abc-copyright Copyright 2008, Pavanello, Agnese
%%abc-edited-by Mair-Gruber, Roland
%%humdrum-veritas 1547365051
%%humdrum-veritas-data 2655749007
%%linebreak <none>
%%barnumbers 0
L: 1/4
M: 2/2
N: Derived from Gas0406-Christi_mater_ave.krn
%%staves [1 2 3 4]
V: 1 clef=treble
V: 2 clef=treble-8
V: 3 clef=treble-8
V: 4 clef=bass
K: C
[V:1] z4 | 
[V:2] A4 | 
[V:3] z4 | 
[V:4] z4 | 
[V:1] z4 | 
[V:2] A2c2- | 
[V:3] z4 | 
[V:4] A,,4 | 
[V:1] A4 | 
[V:2] cde2 | 
[V:3] z4 | 
[V:4] A,,2C,2- | 
[V:1] A2c2- | 
[V:2] E4 | 
[V:3] A4 | 
[V:4] C,2A,,2- | 
[V:1] cBA2- | 
[V:2] A4 | 
[V:3] A2c2- | 
[V:4] A,,2F,2- | 
[V:1] A2G2 | 
[V:2] F2G2 | 
[V:3] c2c2 | 
[V:4] F,2E,2 | 
[V:1] F4 | 
[V:2] A4 | 
[V:3] d4 | 
[V:4] D,4 | 
[V:1] E4 | 
[V:2] A4 | 
[V:3] c4 | 
[V:4] A,,4 | 
[V:1] z4 | 
[V:2] E2F2 | 
[V:3] z4 | 
[V:4] z4 | 
[V:1] z4 | 
[V:2] EEA2 | 
[V:3] z4 | 
[V:4] E,2F,2 | 
[V:1] z4 | 
[V:2] GGc3/d/ | 
[V:3] z4 | 
[V:4] E,E,A,2 | 
[V:1] z4 | 
[V:2] e/f/e2d | 
[V:3] z4 | 
[V:4] G,G,F,2 | 
[V:1] zEF2 | 
[V:2] e2A3/B/ | 
[V:3] z4 | 
[V:4] E,2zD, | 
[V:1] EEA2 | 
[V:2] cBd2 | 
[V:3] zEF2 | 
[V:4] C,E,D,2 | 
[V:1] GGc2 | 
[V:2] B2ce- | 
[V:3] EEA2 | 
[V:4] E,2C,A,, | 
[V:1] B2AB- | 
[V:2] e/f/gce- | 
[V:3] GGFE | 
[V:4] E,2F,G, | 
[V:1] B/c<dc/B/A/ | 
[V:2] efd2 | 
[V:3] G>AB2 | 
[V:4] E,D,G,3/F,/ | 
[V:1] G4 | 
[V:2] e4 | 
[V:3] B4 | 
[V:4] E,4 | 
[V:1] z4 | 
[V:2] z4 | 
[V:3] z4 | 
[V:4] E,2D,D, | 
[V:1] z4 | 
[V:2] e2dd | 
[V:3] z4 | 
[V:4] E,D,/C,/B,,D, | 
[V:1] z4 | 
[V:2] ed/c/Bd | 
[V:3] z4 | 
[V:4] C,B,,/A,,/G,,2 | 
[V:1] z4 | 
[V:2] cB/A/G2 | 
[V:3] z4 | 
[V:4] z2E,2 | 
[V:1] z4 | 
[V:2] z2e2 | 
[V:3] z4 | 
[V:4] D,D,E,D,/C,/ | 
[V:1] z4 | 
[V:2] dded/c/ | 
[V:3] z4 | 
[V:4] B,,D,C,B,,/A,,/ | 
[V:1] z4 | 
[V:2] BdcB/A/ | 
[V:3] z4 | 
[V:4] G,,2A,,C, | 
[V:1] z4 | 
[V:2] ^G2A2 | 
[V:3] z2c2 | 
[V:4] B,,2A,,2 | 
[V:1] z2c2 | 
[V:2] z4 | 
[V:3] BBcB/A/ | 
[V:4] z4 | 
[V:1] BBcB/A/ | 
[V:2] z4 | 
[V:3] GGAc | 
[V:4] z4 | 
[V:1] GGAc | 
[V:2] zde2 | 
[V:3] B2A2 | 
[V:4] z4 | 
[V:1] B2A2 | 
[V:2] dBc2 | 
[V:3] z4 | 
[V:4] zG,A,2 | 
[V:1] z4 | 
[V:2] B2zd | 
[V:3] zGA2 | 
[V:4] G,E,F,2 | 
[V:1] zGA2 | 
[V:2] ecd2 | 
[V:3] GEF2 | 
[V:4] E,E,D,2 | 
[V:1] GEF2 | 
[V:2] Gc2F | 
[V:3] E2zB | 
[V:4] E,C,D,2 | 
[V:1] E2zB | 
[V:2] G2g2 | 
[V:3] c2BG | 
[V:4] C,2zG, | 
[V:1] c2BG | 
[V:2] c2zg | 
[V:3] A2GB | 
[V:4] F,F,G,G, | 
[V:1] A2GB | 
[V:2] cfdg | 
[V:3] c2BG | 
[V:4] F,F,G,2 | 
[V:1] c2BG | 
[V:2] efd2 | 
[V:3] A2GB | 
[V:4] zF,G,2 | 
[V:1] AG2^F | 
[V:2] A/B/cd2 | 
[V:3] cGA2 | 
[V:4] F,E,D,2 | 
[V:1] G2zG | 
[V:2] B2ze | 
[V:3] G2zB- | 
[V:4] E,2zG, | 
[V:1] AFGB | 
[V:2] fdeB | 
[V:3] BABG | 
[V:4] F,2E,G, | 
[V:1] A2G2 | 
[V:2] c>de2 | 
[V:3] A2B2 | 
[V:4] F,2E,2 | 
[V:1] zEFD | 
[V:2] zcdB | 
[V:3] zGFF | 
[V:4] zE,D,D, | 
[V:1] EGF2 | 
[V:2] cGA3/B/ | 
[V:3] GEF2 | 
[V:4] C,E,D,2 | 
[V:1] E>FGA | 
[V:2] cg2f/e/ | 
[V:3] Gc>BA | 
[V:4] C,>D,E,F, | 
[V:1] Bc2B | 
[V:2] dcg2 | 
[V:3] Gcd2 | 
[V:4] G,A,G,2 | 
[V:1] c2zC | 
[V:2] e2zE | 
[V:3] c2zA | 
[V:4] C,2zC, | 
[V:1] DB,C2 | 
[V:2] D2CE- | 
[V:3] BGcA- | 
[V:4] B,,2A,,C, | 
[V:1] D2C2 | 
[V:2] EDE2 | 
[V:3] A^GA2 | 
[V:4] B,,2A,,2 | 
[V:1] zCDB, | 
[V:2] zED2 | 
[V:3] zABG | 
[V:4] zC,B,,B,, | 
[V:1] C2D2 | 
[V:2] CE2D | 
[V:3] cA2^G | 
[V:4] A,,C,B,,2 | 
[V:1] C>DEF | 
[V:2] Ec>BA | 
[V:3] Ae2d/c/ | 
[V:4] A,,>B,,C,D, | 
[V:1] GA2^G | 
[V:2] Gde2 | 
[V:3] BAB2 | 
[V:4] E,F,E,2 | 
[V:1] A4 |]  
[V:2] e4 |]  
[V:3] A4 |]  
[V:4] A,,4 |]  


